static/img/icons/storage.svg

<svg fill="none" height="26" viewBox="0 0 26 26" width="26" xmlns="http://www.w3.org/2000/svg"><g stroke="#fff"><g stroke-width="1.5"><path d="m19.6 1c1.7552.19429 2.9366.63338 3.8184 1.62575 1.5816 1.77994 1.5816 4.6447 1.5816 10.37425 0 5.7296 0 8.5943-1.5816 10.3743-.8818.9924-2.0632 1.4314-3.8184 1.6257m-13.19999 0c-1.75516-.1943-2.93659-.6333-3.81838-1.6257-1.58163-1.78-1.58163-4.6447-1.58163-10.3743 0-5.72955 0-8.59431 1.58163-10.37425.88179-.99237 2.06322-1.43146 3.81838-1.62575" stroke-linecap="round" stroke-linejoin="round"/><path d="m20.2587 10.251 1.0068 3.3563c.0327.1087.0489.163.0578.2189l.0024.017c.0076.056.0076.1126.0076.226 0 2.9139 0 4.3708-.849 5.3199-.0823.0921-.1698.1796-.2619.2619-.9491.849-2.406.849-5.3198.849h-3.8052c-2.91384 0-4.37075 0-5.3198-.849-.0921-.0823-.17955-.1698-.26195-.2619-.84898-.9491-.84898-2.406-.84898-5.3199 0-.1134 0-.17.00763-.226l.0025-.017c.00878-.0559.02508-.1102.05767-.2189l1.00689-3.3563c.6866-2.28863 1.0299-3.43295 1.91565-4.09198.88575-.65902 2.08045-.65902 4.46979-.65902h1.7464c2.3894 0 3.5841 0 4.4698.65902.8858.65903 1.2291 1.80335 1.9157 4.09198z"/><path d="m4.66667 13.8333h16.66663" stroke-linejoin="round"/></g><path d="m17.9907 17.1667h.0093m-4.1667 0h.0094" stroke-linecap="round" stroke-linejoin="round" stroke-width="2"/></g></svg>

<svg width="26" height="26" viewBox="0 0 26 26" fill="none" xmlns="http://www.w3.org/2000/svg">
<path d="M19.6 1C21.3552 1.19429 22.5366 1.63338 23.4184 2.62575C25 4.40569 25 7.27045 25 13C25 18.7296 25 21.5943 23.4184 23.3743C22.5366 24.3667 21.3552 24.8057 19.6 25M6.40001 25C4.64485 24.8057 3.46342 24.3667 2.58163 23.3743C1 21.5943 1 18.7296 1 13C1 7.27045 1 4.40569 2.58163 2.62575C3.46342 1.63338 4.64485 1.19429 6.40001 1" stroke="white" stroke-width="1.5" stroke-linecap="round" stroke-linejoin="round"/>
<path d="M20.2587 10.251L21.2655 13.6073C21.2982 13.716 21.3144 13.7703 21.3233 13.8262L21.3257 13.8432C21.3333 13.8992 21.3333 13.9558 21.3333 14.0692C21.3333 16.9831 21.3333 18.44 20.4843 19.3891C20.402 19.4812 20.3145 19.5687 20.2224 19.651C19.2733 20.5 17.8164 20.5 14.9026 20.5H11.0974C8.18356 20.5 6.72665 20.5 5.7776 19.651C5.6855 19.5687 5.59805 19.4812 5.51565 19.3891C4.66667 18.44 4.66667 16.9831 4.66667 14.0692C4.66667 13.9558 4.66667 13.8992 4.6743 13.8432L4.6768 13.8262C4.68558 13.7703 4.70188 13.716 4.73447 13.6073L5.74136 10.251C6.42796 7.96237 6.77126 6.81805 7.65701 6.15902C8.54276 5.5 9.73746 5.5 12.1268 5.5H13.8732C16.2626 5.5 17.4573 5.5 18.343 6.15902C19.2288 6.81805 19.5721 7.96237 20.2587 10.251Z" stroke="white" stroke-width="1.5"/>
<path d="M4.66667 13.8333H21.3333" stroke="white" stroke-width="1.5" stroke-linejoin="round"/>
<path d="M17.9907 17.1667H18M13.8333 17.1667H13.8427" stroke="white" stroke-width="2" stroke-linecap="round" stroke-linejoin="round"/>
</svg>
